Numix-Light-GalliumOS/scalable/status/weather-showers-symbolic.svg

<svg width="16" xmlns="http://www.w3.org/2000/svg" viewBox="0 0 16 16" height="16" xmlns:xlink="http://www.w3.org/1999/xlink" style="enable-background:new">
<defs>
<clipPath>
<rect width="477.143" x="-830" y="1580.934" height="208.571" style="fill:#ff0"/>
</clipPath>
<clipPath clipPathUnits="userSpaceOnUse">
<rect width="357.384" x="218.9" y="758.675" height="318.397" style="fill:#fff" transform="rotate(.22918)"/>
</clipPath>
<clipPath>
<rect width="477.143" x="-830" y="1580.934" height="208.571" style="fill:#ff0"/>
</clipPath>
<clipPath clipPathUnits="userSpaceOnUse">
<rect width="506.461" x="8.208" y=".064" height="37.48" style="fill:#162d50" transform="rotate(20.37582)"/>
</clipPath>
<clipPath>
<rect width="477.143" x="-830" y="1580.934" height="208.571" style="fill:#ff0"/>
</clipPath>
<clipPath>
<rect width="477.143" x="-830" y="1580.934" height="208.571" style="fill:#ff0"/>
</clipPath>
<clipPath clipPathUnits="userSpaceOnUse">
<rect width="357.865" x="294.934" y="780.645" height="240.871" style="fill:#f00" transform="matrix(.99975 -.02255 .02255 .99975 0 0)"/>
</clipPath>
<clipPath clipPathUnits="userSpaceOnUse">
<rect width="357.384" x="218.9" y="758.675" height="318.397" style="fill:#fff" transform="rotate(.22918)"/>
</clipPath>
<clipPath clipPathUnits="userSpaceOnUse">
<rect width="350.457" x="221.386" y="804.242" height="235.885" transform="rotate(.6171)"/>
</clipPath>
<clipPath>
<rect width="477.143" x="-830" y="1580.934" height="208.571" style="fill:#ff0"/>
</clipPath>
<clipPath clipPathUnits="userSpaceOnUse">
<rect width="506.461" x="8.208" y=".064" height="37.48" style="fill:#162d50" transform="rotate(20.37582)"/>
</clipPath>
<clipPath>
<rect width="477.143" x="-830" y="1580.934" height="208.571" style="fill:#ff0"/>
</clipPath>
<clipPath clipPathUnits="userSpaceOnUse">
<rect width="79.477" x="276.365" y="977.09" height="30.006" style="fill:#e20a17"/>
</clipPath>
<clipPath clipPathUnits="userSpaceOnUse">
<rect width="287.432" x="257.321" y="793.52" height="279.027" style="fill:#fff" transform="rotate(.16206)"/>
</clipPath>
<clipPath clipPathUnits="userSpaceOnUse">
<rect width="301.429" x="0" y=".06" height="195" style="fill:#fff"/>
</clipPath>
<clipPath clipPathUnits="userSpaceOnUse">
<rect width="301.429" x="0" y="857.541" height="195" style="fill:#fff"/>
</clipPath>
<clipPath clipPathUnits="userSpaceOnUse">
<path style="fill:#4a0;clip-path:url(#clipPath11535)" d="m 699.2857,672.93231 a 40.714287,40.714287 0 1 1 -81.42858,0 40.714287,40.714287 0 1 1 81.42858,0 z"/>
</clipPath>
<clipPath clipPathUnits="userSpaceOnUse">
<rect width="301.429" x="0" y="857.541" height="195" style="fill:#fff"/>
</clipPath>
<clipPath id="clipPath11535" clipPathUnits="userSpaceOnUse">
<path style="fill:#4a0" d="m 699.2857,672.93231 a 40.714287,40.714287 0 1 1 -81.42858,0 40.714287,40.714287 0 1 1 81.42858,0 z"/>
</clipPath>
<clipPath clipPathUnits="userSpaceOnUse">
<rect width="301.429" x="0" y="857.541" height="195" style="fill:#fff"/>
</clipPath>
<clipPath clipPathUnits="userSpaceOnUse">
<path style="fill:#4a0" d="m 699.2857,672.93231 a 40.714287,40.714287 0 1 1 -81.42858,0 40.714287,40.714287 0 1 1 81.42858,0 z" transform="matrix(4.3233 0 0 4.3233 -2450.68 -2667.55)"/>
</clipPath>
<clipPath clipPathUnits="userSpaceOnUse">
<rect width="63.987" x="448.118" y="815.74" height="41.394" style="fill:#fff" transform="rotate(27.44968)"/>
</clipPath>
<clipPath clipPathUnits="userSpaceOnUse">
<path style="fill:#4a0;clip-path:url(#clipPath11535)" d="m 699.2857,672.93231 a 40.714287,40.714287 0 1 1 -81.42858,0 40.714287,40.714287 0 1 1 81.42858,0 z" transform="matrix(4.3233 0 0 4.3233 -2450.68 -2667.55)"/>
</clipPath>
<clipPath clipPathUnits="userSpaceOnUse">
<path style="fill:#4a0;clip-path:url(#clipPath11535)" d="m 699.2857,672.93231 a 40.714287,40.714287 0 1 1 -81.42858,0 40.714287,40.714287 0 1 1 81.42858,0 z" transform="matrix(4.3233 0 0 4.3233 -2450.68 -2667.55)"/>
</clipPath>
</defs>
<path style="fill:#353535" d="M 5.1850595,0.50007267 C 5.0311516,0.49911793 4.8740534,0.50748811 4.7068614,0.52990561 2.0367289,0.88789509 2.1189652,3.2745168 2.1189652,3.2745168 1.0253225,3.4681679 0.13116114,4.4626725 0.13116114,5.5020333 c 0,1.0393766 1.14288206,1.9600422 2.10032156,2.2275196 0.5695186,0.1591085 1.3127004,0 1.3127004,0 0.338073,0.6210165 1.4541865,1.0342054 2.231592,1.0342054 1.2676028,0 2.5644556,-0.4375485 2.864501,-1.0342054 0,0 5.2536099,0.4375484 6.3431569,0 1.586135,-0.6369752 1.092861,-2.6286322 0.03751,-3.3015023 -1.055355,-0.6728668 -2.437872,-0.1988858 -2.437872,-0.1988858 0,0 -0.0077,-1.3690463 -1.500229,-2.0236505 -1.4924798,-0.6546139 -2.7519838,0.7905625 -2.7519838,0.7905625 0,0 -0.8371576,-2.48117989 -3.1457947,-2.49600401 z M 2.3674407,8.4853183 C 1.5701593,8.8774572 -0.35179826,10.320732 0.05614954,10.861986 0.46408634,11.403258 1.9798761,9.3185857 2.3674407,8.4853183 z M 14.509923,8.7438697 c -0.797279,0.3921229 -2.723925,1.8304483 -2.315978,2.3717033 0.407938,0.541271 1.928415,-1.5384516 2.315978,-2.3717033 z m -3.066092,0.124311 C 10.646548,9.2603037 8.7199017,10.703595 9.1278507,11.244848 9.5357875,11.78612 11.056265,9.7014322 11.443831,8.8681807 z M 8.6824696,9.2659361 C 7.8851894,9.6580756 5.9585441,11.101366 6.3664907,11.64262 6.7744275,12.183893 8.2949049,10.099204 8.6824696,9.2659361 z M 5.4241586,9.6288945 C 4.6268772,10.021035 2.7002307,11.464323 3.1081796,12.005579 3.5161153,12.546851 5.0365939,10.462162 5.4241586,9.6288945 z M 2.4612053,11.428811 c -0.7972826,0.392138 -2.72392776,1.835429 -2.31598006,2.376683 0.4079369,0.541272 1.92841536,-1.543415 2.31598006,-2.376683 z m 8.8372897,0.243642 c -0.797281,0.392139 -2.7239253,1.835429 -2.3159788,2.376684 0.4079369,0.541271 1.9284138,-1.543416 2.3159788,-2.376684 z M 8.1339486,12.33872 C 7.336666,12.730859 5.4100208,14.174149 5.8179685,14.715405 6.2259054,15.256676 7.746384,13.171989 8.1339486,12.33872 z m 4.7585404,0.482291 c -0.797281,0.392139 -2.723928,1.835428 -2.315979,2.376683 0.407936,0.541272 1.928414,-1.543416 2.315979,-2.376683 z M 5.0537891,13.03482 C 4.2565089,13.426959 2.3298636,14.870249 2.7378102,15.411504 3.145747,15.952777 4.6662269,13.868089 5.0537891,13.03482 z"/>
</svg>

<svg xmlns="http://www.w3.org/2000/svg" viewBox="0 0 16 16" style="enable-background:new">
 <path d="m 5.185 0.5 c -0.154 -0.001 -0.311 0.007 -0.478 0.03 -2.67 0.358 -2.588 2.745 -2.588 2.745 -1.094 0.194 -1.988 1.188 -1.988 2.228 c 0 1.039 1.143 1.96 2.1 2.228 0.57 0.159 1.313 0 1.313 0 0.338 0.621 1.454 1.034 2.232 1.034 1.268 0 2.564 -0.438 2.865 -1.034 0 0 5.254 0.438 6.343 0 1.586 -0.637 1.093 -2.629 0.038 -3.302 -1.055 -0.673 -2.438 -0.199 -2.438 -0.199 0 0 -0.008 -1.369 -1.5 -2.024 -1.492 -0.655 -2.752 0.791 -2.752 0.791 0 0 -0.837 -2.481 -3.146 -2.496 z m -2.818 7.985 c -0.797 0.392 -2.719 1.835 -2.311 2.377 0.408 0.541 1.924 -1.543 2.311 -2.377 z m 12.142 0.259 c -0.797 0.392 -2.724 1.83 -2.316 2.372 0.408 0.541 1.928 -1.538 2.316 -2.372 z m -3.066 0.124 c -0.797 0.392 -2.724 1.835 -2.316 2.377 0.408 0.541 1.928 -1.543 2.316 -2.377 z m -2.761 0.398 c -0.797 0.392 -2.724 1.835 -2.316 2.377 0.408 0.541 1.928 -1.543 2.316 -2.377 z m -3.258 0.363 c -0.797 0.392 -2.724 1.835 -2.316 2.377 0.408 0.541 1.928 -1.543 2.316 -2.377 z m -2.963 1.8 c -0.797 0.392 -2.724 1.835 -2.316 2.377 0.408 0.541 1.928 -1.543 2.316 -2.377 z m 8.837 0.244 c -0.797 0.392 -2.724 1.835 -2.316 2.377 0.408 0.541 1.928 -1.543 2.316 -2.377 z m -3.165 0.666 c -0.797 0.392 -2.724 1.835 -2.316 2.377 0.408 0.541 1.928 -1.543 2.316 -2.377 z m 4.759 0.482 c -0.797 0.392 -2.724 1.835 -2.316 2.377 0.408 0.541 1.928 -1.543 2.316 -2.377 z m -7.839 0.214 c -0.797 0.392 -2.724 1.835 -2.316 2.377 0.408 0.541 1.928 -1.543 2.316 -2.377 z" style="fill:#353535"/>
</svg>
